X: 33609
T: Rakish Paddy
R: reel
M: 4/4
K: Amixolydian
e|:gage g2 de|g2 dc BGGB|Agag a2 ef|a2 ed cAAe|
gage g2 de|g2 dc BGGB|ABcd efge|a2 ed cAAe:|
|:c2 gc ecge|c3 gc edce|d2 ad fdad|d2 ad gfeg|
c2 gc ecge|c3 gc edce|afge fded|caed cAAB:|
|:GBdG BGdB|GBdG BGGB|AceA cAec|AceA cAAB|
GBdG BGdB|GBdG BGGB|ABcd efge|a2 ed cAAe:|

